lms/static/new_index/images/matchup-img/match-label.svg

<svg width="89" height="49" viewBox="0 0 89 49" fill="none" xmlns="http://www.w3.org/2000/svg">
<g filter="url(#filter0_d_153_2214)">
<mask id="path-1-inside-1_153_2214" fill="white">
<path fill-rule="evenodd" clip-rule="evenodd" d="M18.5 5C10.4919 5 4 11.4919 4 19.5C4 27.5081 10.4919 34 18.5 34H58.0441L58.2571 41.249C58.2812 42.0714 59.2329 42.5144 59.8778 42.0033L69.9764 34H70.5C78.5081 34 85 27.5081 85 19.5C85 11.4919 78.5081 5 70.5 5H18.5Z"/>
</mask>
<path fill-rule="evenodd" clip-rule="evenodd" d="M18.5 5C10.4919 5 4 11.4919 4 19.5C4 27.5081 10.4919 34 18.5 34H58.0441L58.2571 41.249C58.2812 42.0714 59.2329 42.5144 59.8778 42.0033L69.9764 34H70.5C78.5081 34 85 27.5081 85 19.5C85 11.4919 78.5081 5 70.5 5H18.5Z" fill="white"/>
<path d="M58.0441 34L58.244 33.9941L58.2383 33.8H58.0441V34ZM58.2571 41.249L58.457 41.2431L58.2571 41.249ZM59.8778 42.0033L59.7535 41.8466L59.8778 42.0033ZM69.9764 34V33.8H69.9068L69.8522 33.8433L69.9764 34ZM4.2 19.5C4.2 11.6023 10.6023 5.2 18.5 5.2V4.8C10.3814 4.8 3.8 11.3814 3.8 19.5H4.2ZM18.5 33.8C10.6023 33.8 4.2 27.3977 4.2 19.5H3.8C3.8 27.6186 10.3814 34.2 18.5 34.2V33.8ZM58.0441 33.8H18.5V34.2H58.0441V33.8ZM58.457 41.2431L58.244 33.9941L57.8442 34.0059L58.0572 41.2549L58.457 41.2431ZM59.7535 41.8466C59.2377 42.2554 58.4763 41.9011 58.457 41.2431L58.0572 41.2549C58.0862 42.2418 59.2282 42.7733 60.002 42.1601L59.7535 41.8466ZM69.8522 33.8433L59.7535 41.8466L60.002 42.1601L70.1006 34.1567L69.8522 33.8433ZM70.5 33.8H69.9764V34.2H70.5V33.8ZM84.8 19.5C84.8 27.3977 78.3977 33.8 70.5 33.8V34.2C78.6186 34.2 85.2 27.6186 85.2 19.5H84.8ZM70.5 5.2C78.3977 5.2 84.8 11.6023 84.8 19.5H85.2C85.2 11.3814 78.6186 4.8 70.5 4.8V5.2ZM18.5 5.2H70.5V4.8H18.5V5.2Z" fill="#F34579" mask="url(#path-1-inside-1_153_2214)"/>
</g>
<path d="M26.1201 15.624V24H24.4401V18.552L22.1961 24H20.9241L18.6681 18.552V24H16.9881V15.624H18.8961L21.5601 21.852L24.2241 15.624H26.1201ZM32.557 22.404H29.221L28.669 24H26.905L29.917 15.612H31.873L34.885 24H33.109L32.557 22.404ZM32.101 21.06L30.889 17.556L29.677 21.06H32.101ZM41.3509 15.624V16.98H39.1189V24H37.4389V16.98H35.2069V15.624H41.3509ZM41.8087 19.8C41.8087 18.976 41.9927 18.24 42.3607 17.592C42.7367 16.936 43.2447 16.428 43.8847 16.068C44.5327 15.7 45.2567 15.516 46.0567 15.516C46.9927 15.516 47.8127 15.756 48.5167 16.236C49.2207 16.716 49.7127 17.38 49.9927 18.228H48.0607C47.8687 17.828 47.5967 17.528 47.2447 17.328C46.9007 17.128 46.5007 17.028 46.0447 17.028C45.5567 17.028 45.1207 17.144 44.7367 17.376C44.3607 17.6 44.0647 17.92 43.8487 18.336C43.6407 18.752 43.5367 19.24 43.5367 19.8C43.5367 20.352 43.6407 20.84 43.8487 21.264C44.0647 21.68 44.3607 22.004 44.7367 22.236C45.1207 22.46 45.5567 22.572 46.0447 22.572C46.5007 22.572 46.9007 22.472 47.2447 22.272C47.5967 22.064 47.8687 21.76 48.0607 21.36H49.9927C49.7127 22.216 49.2207 22.884 48.5167 23.364C47.8207 23.836 47.0007 24.072 46.0567 24.072C45.2567 24.072 44.5327 23.892 43.8847 23.532C43.2447 23.164 42.7367 22.656 42.3607 22.008C41.9927 21.36 41.8087 20.624 41.8087 19.8ZM58.0156 15.624V24H56.3356V20.436H52.7476V24H51.0676V15.624H52.7476V19.068H56.3356V15.624H58.0156ZM68.4839 16.908C68.3279 17.292 68.1359 17.724 67.9559 18.048H65.4239L65.7719 17.976C65.6879 17.688 65.4719 17.256 65.2559 16.908H68.4839ZM72.0959 22.164V21.228H67.3679V20.496H71.0519V19.656H67.3679V18.936H71.6159V18.048H69.0719C69.2759 17.712 69.5159 17.316 69.7439 16.908H72.0599V15.972H70.3319C70.6439 15.528 71.0039 14.928 71.3279 14.34L70.1759 14.052C69.9959 14.592 69.6239 15.348 69.3359 15.828L69.7919 15.972H68.4959V13.92H67.4399V15.972H66.2519V13.92H65.2079V15.972H63.8879L64.4999 15.744C64.3319 15.276 63.9119 14.544 63.5399 14.028L62.5679 14.352C62.9039 14.844 63.2639 15.504 63.4439 15.972H61.6679V16.908H64.3919L64.1039 16.956C64.2959 17.28 64.4999 17.712 64.6079 18.048H62.1479V18.936H66.2759V19.656H62.7359V20.496H66.2759V21.228H61.6199V22.164H65.3279C64.2719 22.908 62.7119 23.532 61.2839 23.832C61.5359 24.072 61.8479 24.492 62.0159 24.78C63.5159 24.36 65.1359 23.58 66.2759 22.62V24.948H67.3679V22.536C68.4959 23.568 70.1039 24.372 71.6639 24.792C71.8319 24.492 72.1559 24.036 72.4079 23.796C70.9439 23.52 69.3959 22.908 68.3399 22.164H72.0959Z" fill="#F34579"/>
<rect x="70" width="15" height="15" rx="7.5" fill="url(#paint0_linear_153_2214)"/>
<path d="M74.9377 10.5883C76.3771 10.5883 77.2121 9.76208 77.2121 7.74961V4.41187H76.0829V7.85596C76.0829 9.1158 75.6376 9.5412 74.9377 9.5412C74.2538 9.5412 73.8244 9.1158 73.8244 7.85596V4.41187H72.6475V7.74961C72.6475 9.76208 73.5063 10.5883 74.9377 10.5883Z" fill="white"/>
<path d="M78.1147 10.4738H79.2917V8.32227H80.079C81.3434 8.32227 82.3533 7.70053 82.3533 6.31798C82.3533 4.88635 81.3513 4.41187 80.0472 4.41187H78.1147V10.4738ZM79.2917 7.36512V5.37719H79.9597C80.7708 5.37719 81.2002 5.61444 81.2002 6.31798C81.2002 7.01335 80.8106 7.36512 79.9994 7.36512H79.2917Z" fill="white"/>
<defs>
<filter id="filter0_d_153_2214" x="0" y="3" width="89" height="45.2213" filterUnits="userSpaceOnUse" color-interpolation-filters="sRGB">
<feFlood flood-opacity="0" result="BackgroundImageFix"/>
<feColorMatrix in="SourceAlpha" type="matrix" values="0 0 0 0 0 0 0 0 0 0 0 0 0 0 0 0 0 0 127 0" result="hardAlpha"/>
<feOffset dy="2"/>
<feGaussianBlur stdDeviation="2"/>
<feComposite in2="hardAlpha" operator="out"/>
<feColorMatrix type="matrix" values="0 0 0 0 1 0 0 0 0 0.839216 0 0 0 0 0.854902 0 0 0 1 0"/>
<feBlend mode="normal" in2="BackgroundImageFix" result="effect1_dropShadow_153_2214"/>
<feBlend mode="normal" in="SourceGraphic" in2="effect1_dropShadow_153_2214" result="shape"/>
</filter>
<linearGradient id="paint0_linear_153_2214" x1="70" y1="0" x2="87.986" y2="9.09513" gradientUnits="userSpaceOnUse">
<stop stop-color="#E744BD"/>
<stop offset="0.28125" stop-color="#FF8E90"/>
<stop offset="0.630208" stop-color="#FF9D61"/>
<stop offset="1" stop-color="#FF8E90"/>
</linearGradient>
</defs>
</svg>

<?xml version="1.0" encoding="utf-8"?>
<!-- Generator: Adobe Illustrator 16.0.0, SVG Export Plug-In . SVG Version: 6.00 Build 0)  -->
<!DOCTYPE svg PUBLIC "-//W3C//DTD SVG 1.1//EN" "http://www.w3.org/Graphics/SVG/1.1/DTD/svg11.dtd">
<svg version="1.1" id="Layer_1" xmlns="http://www.w3.org/2000/svg" xmlns:xlink="http://www.w3.org/1999/xlink" x="0px" y="0px"
	 width="89px" height="49px" viewBox="0 0 89 49" enable-background="new 0 0 89 49" xml:space="preserve">
<g>
	<path fill="#FFFFFF" d="M18.5,5C10.492,5,4,11.492,4,19.5S10.492,34,18.5,34h39.544l0.214,7.249
		c0.023,0.822,0.975,1.266,1.62,0.755L69.977,34H70.5C78.508,34,85,27.508,85,19.5S78.508,5,70.5,5H18.5z"/>
	<defs>
		<filter id="Adobe_OpacityMaskFilter" filterUnits="userSpaceOnUse" x="3.8" y="4.8" width="81.4" height="37.622">
			<feColorMatrix  type="matrix" values="1 0 0 0 0  0 1 0 0 0  0 0 1 0 0  0 0 0 1 0"/>
		</filter>
	</defs>
	<mask maskUnits="userSpaceOnUse" x="3.8" y="4.8" width="81.4" height="37.622" id="path-1-inside-1_153_2214">
		<path fill="#FFFFFF" filter="url(#Adobe_OpacityMaskFilter)" d="M18.5,5C10.492,5,4,11.492,4,19.5S10.492,34,18.5,34h39.544
			l0.214,7.249c0.023,0.822,0.975,1.266,1.62,0.755L69.977,34H70.5C78.508,34,85,27.508,85,19.5S78.508,5,70.5,5H18.5z"/>
	</mask>
	<path mask="url(#path-1-inside-1_153_2214)" fill="#F34579" d="M58.044,34l0.2-0.006L58.238,33.8h-0.194V34z M58.258,41.249
		l0.199-0.006L58.258,41.249z M59.878,42.004l-0.124-0.157L59.878,42.004z M69.977,34v-0.2h-0.07l-0.055,0.044L69.977,34z M4.2,19.5
		c0-7.897,6.402-14.3,14.3-14.3V4.8c-8.119,0-14.7,6.582-14.7,14.7H4.2z M18.5,33.8c-7.898,0-14.3-6.402-14.3-14.3H3.8
		c0,8.119,6.582,14.7,14.7,14.7V33.8z M58.044,33.8H18.5v0.4h39.544V33.8z M58.457,41.243l-0.213-7.249l-0.4,0.012l0.213,7.249
		L58.457,41.243z M59.754,41.847c-0.516,0.409-1.277,0.055-1.297-0.604l-0.4,0.012c0.029,0.987,1.172,1.519,1.945,0.905
		L59.754,41.847z M69.852,33.844l-10.098,8.003l0.248,0.313l10.099-8.004L69.852,33.844z M70.5,33.8h-0.523v0.4H70.5V33.8z
		 M84.8,19.5c0,7.897-6.401,14.3-14.3,14.3v0.4c8.119,0,14.7-6.581,14.7-14.7H84.8z M70.5,5.2c7.898,0,14.3,6.402,14.3,14.3h0.4
		c0-8.119-6.581-14.7-14.7-14.7V5.2z M18.5,5.2h52V4.8h-52V5.2z"/>
</g>
<path fill="#F34579" d="M26.12,15.624V24h-1.68v-5.448L22.196,24h-1.272l-2.256-5.448V24h-1.68v-8.376h1.908l2.664,6.228
	l2.664-6.228H26.12z M32.557,22.404h-3.336L28.669,24h-1.764l3.012-8.388h1.956L34.885,24h-1.776L32.557,22.404z M32.101,21.06
	l-1.212-3.504l-1.212,3.504H32.101z M41.351,15.624v1.356h-2.232V24h-1.68v-7.02h-2.232v-1.356H41.351z M41.809,19.8
	c0-0.824,0.184-1.56,0.552-2.208c0.376-0.656,0.884-1.164,1.524-1.524c0.648-0.368,1.372-0.552,2.172-0.552
	c0.936,0,1.756,0.24,2.46,0.72s1.196,1.144,1.476,1.992h-1.932c-0.191-0.4-0.464-0.7-0.816-0.9c-0.344-0.2-0.744-0.3-1.199-0.3
	c-0.488,0-0.924,0.116-1.308,0.348c-0.376,0.224-0.672,0.544-0.888,0.96c-0.208,0.416-0.312,0.904-0.312,1.464
	c0,0.552,0.104,1.04,0.312,1.464c0.216,0.416,0.512,0.74,0.888,0.972c0.384,0.224,0.82,0.336,1.308,0.336
	c0.455,0,0.855-0.1,1.199-0.3c0.353-0.208,0.625-0.512,0.816-0.912h1.932c-0.279,0.856-0.771,1.524-1.476,2.004
	c-0.696,0.472-1.517,0.708-2.46,0.708c-0.8,0-1.524-0.18-2.172-0.54c-0.64-0.368-1.148-0.876-1.524-1.524
	C41.993,21.36,41.809,20.624,41.809,19.8z M58.016,15.624V24h-1.68v-3.564h-3.588V24h-1.68v-8.376h1.68v3.444h3.588v-3.444H58.016z
	 M68.484,16.908c-0.156,0.384-0.349,0.816-0.528,1.14h-2.532l0.348-0.072c-0.084-0.288-0.299-0.72-0.516-1.068H68.484z
	 M72.096,22.164v-0.936h-4.729v-0.732h3.685v-0.84h-3.685v-0.72h4.248v-0.888h-2.543c0.203-0.336,0.443-0.732,0.672-1.14h2.316
	v-0.936h-1.729c0.313-0.444,0.672-1.044,0.996-1.632l-1.152-0.288c-0.18,0.54-0.552,1.296-0.84,1.776l0.456,0.144h-1.296V13.92
	h-1.057v2.052h-1.188V13.92h-1.044v2.052h-1.32l0.612-0.228c-0.168-0.468-0.588-1.2-0.96-1.716l-0.972,0.324
	c0.336,0.492,0.695,1.152,0.875,1.62h-1.775v0.936h2.725l-0.289,0.048c0.192,0.324,0.396,0.756,0.504,1.092h-2.459v0.888h4.127v0.72
	h-3.539v0.84h3.539v0.732h-4.656v0.936h3.709c-1.057,0.744-2.616,1.368-4.045,1.668c0.252,0.24,0.564,0.66,0.732,0.948
	c1.5-0.42,3.12-1.2,4.26-2.16v2.328h1.092v-2.412c1.129,1.032,2.736,1.836,4.297,2.256c0.168-0.3,0.492-0.756,0.744-0.996
	c-1.465-0.276-3.012-0.888-4.068-1.632H72.096z"/>
<path fill="#F34579" d="M77.5,0L77.5,0C81.643,0,85,3.358,85,7.5l0,0c0,4.142-3.357,7.5-7.5,7.5l0,0c-4.143,0-7.5-3.358-7.5-7.5l0,0
	C70,3.358,73.357,0,77.5,0z"/>
<path fill="#FFFFFF" d="M74.938,10.588c1.439,0,2.274-0.826,2.274-2.839V4.412h-1.129v3.444c0,1.26-0.445,1.685-1.146,1.685
	c-0.684,0-1.113-0.425-1.113-1.685V4.412h-1.177V7.75C72.647,9.762,73.506,10.588,74.938,10.588z"/>
<path fill="#FFFFFF" d="M78.115,10.474h1.176V8.322h0.788c1.265,0,2.274-0.622,2.274-2.004c0-1.432-1.002-1.906-2.307-1.906h-1.932
	V10.474z M79.291,7.365V5.377h0.668c0.813,0,1.241,0.237,1.241,0.941c0,0.695-0.39,1.047-1.2,1.047H79.291z"/>
</svg>
